X:1
T:Title
%%score ( 1 2 ) ( 3 4 )
L:1/8
Q:1/4=107
M:6/8
K:Bb
V:1 treble nm="Grand Piano, Soprano"
V:2 treble 
V:3 bass nm="Choir Pad, Clooney, CMD"
V:4 bass 
V:1
 [DF] [DF]2 [CE] [B,D]2 | [FB] [FA]2 [EG] [EG]2 | [EG] [DF]2 [B,D][A,C][B,D] | %3
w: By~Daniel~Brink~Towner,~1899 * * *|||
 [CE] [B,D]2- [B,D]2- [B,D]/ z/ | [DF] [DF]2 [CE] [B,D]2 | [FB] [FA]2 [EG] [EG]2 | %6
w: |||
 [EB]AG [EA] [=Ec]2 | [C=E] F2- F2- F/ z/ | [EF] [Ec]2 [EA] [EF]2 | F [Fd]2 [DB] [DF]2 | %10
w: ||||
 [DF]GA [DB] [=Ed]2 | [=Ec] [Fc]2- [Fc]2- [Fc]/ z/ | [EF] [DF]2 [CE] [B,D]2 | %13
w: |||
 [FB] [FA]2 [EG] [EG]2 | [EG][DF][EA] [DB] [Ec]2 | [EA] [DB]2- [DB]3- | [DB]3 z3 |] %17
w: ||||
V:2
 x6 | x6 | x6 | x6 | x6 | x6 | z E2 z3 | x6 | x6 | x6 | z E2 z3 | x6 | x6 | x6 | x6 | x6 | x6 |] %17
V:3
 [B,,B,] [B,,B,]2 [B,,B,] [B,,F,]2 | [D,B,] [E,B,]2 [E,B,] [E,B,]2 | [E,B,] [F,B,]2 F, F,2 | %3
 F, [B,,F,]2- [B,,F,]2- [B,,F,]/ z/ | [B,,B,] [B,,B,]2 [B,,B,] [B,,F,]2 | %5
 [D,B,] [E,B,]2 [E,B,] [E,B,]2 | [G,B,] [F,C]2 [F,C] [C,B,]2 | %7
 [C,B,] [F,A,]2- [F,A,]2- [F,A,]/ z/ | [F,A,] [F,A,]2 [F,C] [F,C]2 | %9
 [F,A,] [B,,B,]2 [B,,F,] [B,,B,]2 | [B,,B,][E,B,][C,F,] [B,,F,] [C,B,]2 | %11
 [C,B,] [F,A,]2- [F,A,]2- [F,A,]/ z/ | [F,A,] [B,,B,]2 [B,,B,] [B,,F,]2 | %13
 [D,B,] [E,B,]2 [E,B,] [E,B,]2 | z .B,2 z3 | F, [B,,F,]2- [B,,F,]3- | [B,,F,]3 z3 |] %17
V:4
 x6 | x6 | x6 | x6 | x6 | x6 | x6 | x6 | x6 | x6 | x6 | x6 | x6 | x6 | %14
 [E,B,]F,-[F,C] [F,B,] [F,A,]2 | x6 | x6 |] %17

